**kern
*MM60
*k[]
*M4/4
=1
1r
=2
1r
=3
8r
8a
8g#
8a
4e
[4dd
=4
8dd]
16cc
16b
8cc
16b
16a
4.b
8b
=5
[2a
8a]
16g
16f
8g
16f
16e
=6
8f
16g
16a
8g
8a
4.e
8e
=7
4.a
8b-
16g
16a
16f
16g
16e
16a
16g
16a
=8
8f
8g
8a
8g#
4.a
8g#
=9
4a
8b
8a
8g#
[8b
4b_
=10
4b]
2a
[4g
=11
16g]
16b
16a
16g
16a
16g
16f
16e
[2f
=12
16f]
16a
16g
16f
16g
16f
16e
16d
[2e
=13
8e]
8A
[4d
4d]
4A
=14
8r
[8a
16a]
8a
[16a
2a_
=15
8a]
8a
8dd
8cc
4b
[4a
=16
8a]
[8a
16a]
16a
16g
16f
8e
[8g
16g]
16g
16f
16e
=17
8d
[8f
16f]
16f
16e
16d
8c
8d
16c
16d
8e
=18
8e
8r
4r
2r
=19
1r
=20
1r
=21
1r
=22
1r
=23
2r
8r
16b-
16cc
8b-
8cc
=24
[4g
8g]
8g
2cc
=25
16b-
16cc
16a
16b-
16g
16cc
16b-
16cc
16a
16b-
16cc
16dd
4cc
=26
16e
16f
16e
16d
4.c
8c
[4f
=27
4f]
4e
16f
16b-
16a
16g
8a
[8dd
=28
16dd]
16a
16g
16f
8g
[8cc
16cc]
16g
16f
16e
16f
16g
16a
16b
=29
8cc
16dd
16ee
8dd
8cc
16b
16cc
16b
16a
8g
[8g
=30
4g]
8g
8cc
4a
4b
=31
[4g
8g]
8a
8g
8f#
4g
=32
1r
=33
1r
=34
8G#
8r
4r
2r
=35
1r
=36
1r
=37
1r
=38
1r
=39
1r
=40
1r
=41
2r
8A
8A
8B-
8c
=42
8d
8B
8c
8d
8G
8G
8A
8B
=43
8c
8f
8g
8f
8e
8r
4r
=44
1r
=45
2r
8c
8c
8d
8e
=46
8f
8b-
8cc
8b-
8a
8r
4r
=47
1r
=48
1r
=49
1r
=50
2r
8g
8d
8e-
8f
=51
8g
8e
8f
8g
8f
8c
8d
8e-
=52
8f
8d
8e-
8f
8e-
8B-
8c
8d
=53
8e-
8c
16c
16B
16A
16G
8A
8r
4r
=54
1r
=55
1r
=56
1r
=57
1r
=58
1r
=59
1r
=60
1r
=61
1r
=62
4r
8r
8b
4.a
8g
=63
1f
==
*-
